client/public/img/game/shared/mapPings/gift_ping.svg

<?xml version="1.0" encoding="UTF-8" standalone="no"?>
<svg
   width="134"
   height="136"
   viewBox="0 0 134 136"
   fill="none"
   version="1.1"
   id="svg8"
   xmlns="http://www.w3.org/2000/svg"
   xmlns:svg="http://www.w3.org/2000/svg">
  <g
     filter="url(#filter0_d_2273_114)"
     id="g1">
    <path
       d="M67 121.094C99.3604 121.094 125.594 94.8604 125.594 62.5C125.594 30.1396 99.3604 3.90625 67 3.90625C34.6396 3.90625 8.40625 30.1396 8.40625 62.5C8.40625 94.8604 34.6396 121.094 67 121.094Z"
       stroke="white"
       stroke-width="7.81"
       stroke-linecap="round"
       stroke-linejoin="round"
       id="path1" />
  </g>
  <g
     filter="url(#filter1_d_2273_114)"
     id="g4">
    <path
       d="M58.2156 31.2877C62.0807 34.1744 65.4359 38.9426 67.0459 44.2699C68.6558 38.9426 72.011 34.1744 75.8761 31.2877C78.368 29.4267 81.2562 28.2135 84.1728 28.3549C87.195 28.5015 89.9063 30.0872 91.9129 33.1377L91.9728 33.2287L92.0225 33.3255C93.7723 36.7334 93.9799 39.8593 92.6512 42.543C91.3798 45.1109 88.9021 46.8495 86.2127 48.0416C85.4288 48.3891 84.6019 48.701 83.745 48.9805H103.242V60.8689H100.256V72.1402H69.5313V60.8689H64.4694V72.1402H33.7451V60.8689H30.7598V48.9805H50.3467C49.4898 48.701 48.663 48.3891 47.879 48.0416C45.1896 46.8495 42.7119 45.1109 41.4405 42.543C40.1118 39.8593 40.3194 36.7334 42.0692 33.3255L42.1189 33.2287L42.1788 33.1377C44.1855 30.0872 46.8968 28.5015 49.9189 28.3549C52.8355 28.2135 55.7238 29.4267 58.2156 31.2877Z"
       fill="white"
       id="path2" />
    <path
       d="M33.7451 77.2021V96.6548H64.4694V77.2021H33.7451Z"
       fill="white"
       id="path3" />
    <path
       d="M69.5313 96.6548V77.2021H100.256V96.6548H69.5313Z"
       fill="white"
       id="path4" />
  </g>
  <defs
     id="defs8">
    <filter
       id="filter0_d_2273_114"
       x="0.500977"
       y="0.00195312"
       width="132.998"
       height="135.996"
       filterUnits="userSpaceOnUse"
       color-interpolation-filters="sRGB">
      <feFlood
         flood-opacity="0"
         result="BackgroundImageFix"
         id="feFlood4" />
      <feColorMatrix
         in="SourceAlpha"
         type="matrix"
         values="0 0 0 0 0 0 0 0 0 0 0 0 0 0 0 0 0 0 127 0"
         result="hardAlpha"
         id="feColorMatrix4" />
      <feOffset
         dy="7"
         id="feOffset4" />
      <feGaussianBlur
         stdDeviation="2"
         id="feGaussianBlur4" />
      <feColorMatrix
         type="matrix"
         values="0 0 0 0 0 0 0 0 0 0 0 0 0 0 0 0 0 0 0.35 0"
         id="feColorMatrix5" />
      <feBlend
         mode="normal"
         in2="BackgroundImageFix"
         result="effect1_dropShadow_2273_114"
         id="feBlend5" />
      <feBlend
         mode="normal"
         in="SourceGraphic"
         in2="effect1_dropShadow_2273_114"
         result="shape"
         id="feBlend6" />
    </filter>
    <filter
       id="filter1_d_2273_114"
       x="26.7598"
       y="28.3438"
       width="80.4814"
       height="79.3105"
       filterUnits="userSpaceOnUse"
       color-interpolation-filters="sRGB">
      <feFlood
         flood-opacity="0"
         result="BackgroundImageFix"
         id="feFlood6" />
      <feColorMatrix
         in="SourceAlpha"
         type="matrix"
         values="0 0 0 0 0 0 0 0 0 0 0 0 0 0 0 0 0 0 127 0"
         result="hardAlpha"
         id="feColorMatrix6" />
      <feOffset
         dy="7"
         id="feOffset6" />
      <feGaussianBlur
         stdDeviation="2"
         id="feGaussianBlur6" />
      <feColorMatrix
         type="matrix"
         values="0 0 0 0 0 0 0 0 0 0 0 0 0 0 0 0 0 0 0.35 0"
         id="feColorMatrix7" />
      <feBlend
         mode="normal"
         in2="BackgroundImageFix"
         result="effect1_dropShadow_2273_114"
         id="feBlend7" />
      <feBlend
         mode="normal"
         in="SourceGraphic"
         in2="effect1_dropShadow_2273_114"
         result="shape"
         id="feBlend8" />
    </filter>
  </defs>
</svg>

<svg xmlns="http://www.w3.org/2000/svg" width="134" height="136" fill="none"><g filter="url(#a)"><path stroke="#fff" stroke-linecap="round" stroke-linejoin="round" stroke-width="7.81" d="M67 121.094c32.36 0 58.594-26.234 58.594-58.594S99.36 3.906 67 3.906 8.406 30.14 8.406 62.5 34.64 121.094 67 121.094"/></g><g fill="#fff" filter="url(#b)"><path d="M58.216 31.288c3.865 2.886 7.22 7.655 8.83 12.982 1.61-5.327 4.965-10.096 8.83-12.982 2.492-1.861 5.38-3.075 8.297-2.933 3.022.146 5.733 1.732 7.74 4.783l.06.09.05.097c1.75 3.408 1.957 6.534.628 9.218-1.271 2.568-3.749 4.307-6.438 5.499-.784.347-1.611.659-2.468.938h19.497V60.87h-2.986V72.14H69.531V60.87H64.47V72.14H33.745V60.87H30.76V48.98h19.587a26 26 0 0 1-2.468-.94c-2.69-1.191-5.167-2.93-6.438-5.498-1.33-2.684-1.122-5.81.628-9.218l.05-.096.06-.091c2.006-3.05 4.718-4.636 7.74-4.783 2.917-.142 5.805 1.072 8.297 2.933M33.745 77.202v19.453H64.47V77.202zM69.531 96.655V77.202h30.725v19.453z"/></g><defs><filter id="a" width="132.998" height="135.996" x=".501" y=".002" color-interpolation-filters="sRGB" filterUnits="userSpaceOnUse"><feFlood flood-opacity="0" result="BackgroundImageFix"/><feColorMatrix in="SourceAlpha" result="hardAlpha" values="0 0 0 0 0 0 0 0 0 0 0 0 0 0 0 0 0 0 127 0"/><feOffset dy="7"/><feGaussianBlur stdDeviation="2"/><feColorMatrix values="0 0 0 0 0 0 0 0 0 0 0 0 0 0 0 0 0 0 0.35 0"/><feBlend in2="BackgroundImageFix" result="effect1_dropShadow_2273_114"/><feBlend in="SourceGraphic" in2="effect1_dropShadow_2273_114" result="shape"/></filter><filter id="b" width="80.481" height="79.311" x="26.76" y="28.344" color-interpolation-filters="sRGB" filterUnits="userSpaceOnUse"><feFlood flood-opacity="0" result="BackgroundImageFix"/><feColorMatrix in="SourceAlpha" result="hardAlpha" values="0 0 0 0 0 0 0 0 0 0 0 0 0 0 0 0 0 0 127 0"/><feOffset dy="7"/><feGaussianBlur stdDeviation="2"/><feColorMatrix values="0 0 0 0 0 0 0 0 0 0 0 0 0 0 0 0 0 0 0.35 0"/><feBlend in2="BackgroundImageFix" result="effect1_dropShadow_2273_114"/><feBlend in="SourceGraphic" in2="effect1_dropShadow_2273_114" result="shape"/></filter></defs></svg>
